usr/share/icons/biglinux-icons-material/22/actions/nextuntranslated.svg

<svg xmlns="http://www.w3.org/2000/svg" viewBox="0 0 22 22">
  <defs id="defs3051">
    <style type="text/css" id="current-color-scheme">
      .ColorScheme-Text {
        color:#dedede;
      }
      </style>
  </defs>
 <path 
     style="fill:currentColor;fill-opacity:1;stroke:none" 
     d="M 15.707031 4 L 15 4.7070312 L 17.292969 7 L 13 7 L 13 8 L 17.292969 8 L 15 10.292969 L 15.707031 11 L 19 7.7070312 L 19.207031 7.5 L 19 7.2929688 L 15.707031 4 z M 5 15 L 5 16 L 5 17 L 16 17 L 16 16 L 16 15 L 15 15 L 15 16 L 6 16 L 6 15 L 5 15 z "
     class="ColorScheme-Text"
     />
 </svg>

<svg xmlns="http://www.w3.org/2000/svg" viewBox="0 0 22 22"><path d="M15.707 4 15 4.707 17.293 7H13v1h4.293L15 10.293l.707.707L19 7.707l.207-.207L19 7.293 15.707 4zM5 15v2h11v-2h-1v1H6v-1H5z" style="fill:currentColor;fill-opacity:1;stroke:none;color:#dedede"/></svg>
